X:1
T:Louis' Waltz
M:4/4
R:
K:D
BA  G|F2 DF Ad|f4 ef|gb bg fg|B3 d cB|AG EF GA|
c2B2A2|F3D FB|A3B AG|F2 DF Ad| f4 ef| gb bg fg|
B3 d cB| AG DF GA|c3 Bc2|d3 d d2|d6|A2zAA2|
c2B2 A2|F3 D FA|d2 c2 d2|e3 e e2|e2A2G2|F6|
F2E2F2|G3GG2|c2B2A2|F3D FA|d2c2d2|E2zEE2|G2F2E2|D6||
